X:1
T:Deportee
M:3/4
L:1/4
K:E
 z2 B,| G G G| G F E| A3/2 A/2 B|G/2-F/2 E2-| E z B,| G3/2 G/2 G| G F E|\
 C E E| E3-| E z E| c3/2 c/2 c| c d e| B B B|G/2-F/2 E3/2 B,/2| G3/2 G/2 G|\
 G F E| C E E| E3-| E z E| c3/2 c/2 c| c- d e| B2 B/2B/2| B G z/2 B,/2|\
 A3/2 A/2 A| A F3/2 B,/2| G G A| B G2-| G z E| c3/2 c/2 c| c d e| B3/2 B/2 B|\
G/2-F/2 E z| G3/2 G/2 G| G3/2 F/2 E| C E E| E3-| E z2|
